desktop/svgs/light/file-minus.svg

<svg xmlns="http://www.w3.org/2000/svg" viewBox="0 0 384 512"><path d="M369.9 97.9L286 14C277 5 264.8-.1 252.1-.1H48C21.5 0 0 21.5 0 48v416c0 26.5 21.5 48 48 48h288c26.5 0 48-21.5 48-48V131.9c0-12.7-5.1-25-14.1-34zm-22.6 22.7c2.1 2.1 3.5 4.6 4.2 7.4H256V32.5c2.8.7 5.3 2.1 7.4 4.2l83.9 83.9zM336 480H48c-8.8 0-16-7.2-16-16V48c0-8.8 7.2-16 16-16h176v104c0 13.3 10.7 24 24 24h104v304c0 8.8-7.2 16-16 16zm-60-160H108c-6.6 0-12-5.4-12-12v-8c0-6.6 5.4-12 12-12h168c6.6 0 12 5.4 12 12v8c0 6.6-5.4 12-12 12z"/></svg>

<svg xmlns="http://www.w3.org/2000/svg" viewBox="0 0 384 512"><path d="M369.9,97.9,286,14A48,48,0,0,0,252.1-.1H48A48.16,48.16,0,0,0,0,48V464a48,48,0,0,0,48,48H336a48,48,0,0,0,48-48V131.9A48.23,48.23,0,0,0,369.9,97.9Zm-22.6,22.7a15.73,15.73,0,0,1,4.2,7.4H256V32.5a15.73,15.73,0,0,1,7.4,4.2ZM336,480H48a16,16,0,0,1-16-16V48A16,16,0,0,1,48,32H224V136a23.94,23.94,0,0,0,24,24H352V464A16,16,0,0,1,336,480ZM288,300v8a12,12,0,0,1-12,12H108a12,12,0,0,1-12-12v-8a12,12,0,0,1,12-12H276A12,12,0,0,1,288,300Z"/></svg>
